icon/mi/rocket.svg

<?xml version="1.0" encoding="UTF-8"?>
<svg viewBox="0 0 15 15" xmlns="http://www.w3.org/2000/svg" id="rocket" height="1em" width="1em">
  <path d="m11.5547 2c-2.14407 0-5.02107 1.471-6.95307 4h-1.6016c-1.1573 0-1.8206.8638-2.277302 1.7773l-.6114 1.2227h1.443402 1.4453l1.5 1.5 1.5 1.5v1.4453 1.4434l1.2227-.6113c.9135-.4568 1.7773-1.1201 1.7773-2.2774v-1.6016c2.52897-1.932 3.99997-4.809 3.99997-6.9531v-1.4453zm-2.55467 3c.5523 0 .99997.4477.99997 1s-.44767 1-.99997 1-1-.4477-1-1 .4477-1 1-1zm-6.5 6-.5.5c-.7222.7222-1 2.5-1 2.5s1.698-.198 2.5-1l.5-.5z"/>
</svg>

<svg height="15" width="15" xmlns="http://www.w3.org/2000/svg"><path d="M11.555 2C9.41 2 6.534 3.471 4.602 6H3C1.843 6 1.18 6.864.723 7.777L.11 9H3l1.5 1.5L6 12V14.889l1.223-.612C8.136 13.821 9 13.157 9 12v-1.602c2.529-1.932 4-4.809 4-6.953V2zM9 5a1 1 0 1 1 0 2 1 1 0 0 1 0-2zm-6.5 6-.5.5c-.722.722-1 2.5-1 2.5s1.698-.198 2.5-1l.5-.5z"/></svg>
